packages/icons/src/icons/regular/calendar.svg

<?xml version="1.0" encoding="utf-8"?>
<!-- Generator: Adobe Illustrator 22.1.0, SVG Export Plug-In . SVG Version: 6.00 Build 0)  -->
<svg version="1.1" id="Layer_1" xmlns="http://www.w3.org/2000/svg" xmlns:xlink="http://www.w3.org/1999/xlink" x="0px" y="0px"
	 viewBox="0 0 24 24" style="enable-background:new 0 0 24 24;" xml:space="preserve">
<style type="text/css">
	.st0{fill:#2E4258;}
</style>
<g id="Layer_1">
	<g>
		<path class="st0" d="M15,10.1h-1V12H9v-1.9H8V12H4.2v1H8v3H4.2v1H8v2h1v-2h5v2h1v-2h4v-1h-4v-3h4v-1h-4V10.1z M14,16H9v-3h5V16z"
			/>
		<path class="st0" d="M20,4h-2V3c0-0.6-0.4-1-1-1h-1c-0.6,0-1,0.4-1,1v1H8V3c0-0.6-0.4-1-1-1H6C5.4,2,5,2.4,5,3v1H3
			C2.4,4,2,4.4,2,5v16c0,0.6,0.4,1,1,1h17c0.6,0,1-0.4,1-1V5C21,4.4,20.6,4,20,4z M16,3h1v3h-1V3z M6,3h1v3H6V3z M20,21H3V9h17V21z
			 M20,8H3V5h2v1c0,0.6,0.4,1,1,1h1c0.6,0,1-0.4,1-1V5h7v1c0,0.6,0.4,1,1,1h1c0.6,0,1-0.4,1-1V5h2V8z"/>
	</g>
	<g>
		<path class="st0" d="M15,10.1h-1V12H9v-1.9H8V12H4.2v1H8v3H4.2v1H8v2h1v-2h5v2h1v-2h4v-1h-4v-3h4v-1h-4V10.1z M14,16H9v-3h5V16z"
			/>
		<path class="st0" d="M20,4h-2V3c0-0.6-0.4-1-1-1h-1c-0.6,0-1,0.4-1,1v1H8V3c0-0.6-0.4-1-1-1H6C5.4,2,5,2.4,5,3v1H3
			C2.4,4,2,4.4,2,5v16c0,0.6,0.4,1,1,1h17c0.6,0,1-0.4,1-1V5C21,4.4,20.6,4,20,4z M16,3h1v3h-1V3z M6,3h1v3H6V3z M20,21H3V9h17V21z
			 M20,8H3V5h2v1c0,0.6,0.4,1,1,1h1c0.6,0,1-0.4,1-1V5h7v1c0,0.6,0.4,1,1,1h1c0.6,0,1-0.4,1-1V5h2V8z"/>
	</g>
</g>
</svg>

<svg xmlns="http://www.w3.org/2000/svg" width="24" height="24" viewBox="0 0 24 24">
  <title>calendar-24</title>
  <g id="final">
    <g id="calendar">
      <g id="outline">
        <path d="M15,10.08H14V12H9V10.08H8V12H4.23v1H8v3H4.23v1H8v2H9V17h5v2h1V17h4V16H15V13h4V12H15ZM14,16H9V13h5Z" fill="#2e4258"/>
        <path d="M18,6a1,1,0,0,1-1,1H16a1,1,0,0,1-1-1V5H8V6A1,1,0,0,1,7,7H6A1,1,0,0,1,5,6V5H3V8H20V5H18Z" fill="none"/>
        <rect x="3" y="9" width="17" height="12" fill="none"/>
        <path d="M20,4H18V3a1,1,0,0,0-1-1H16a1,1,0,0,0-1,1V4H8V3A1,1,0,0,0,7,2H6A1,1,0,0,0,5,3V4H3A1,1,0,0,0,2,5V21a1,1,0,0,0,1,1H20a1,1,0,0,0,1-1V5A1,1,0,0,0,20,4ZM16,3h1V6H16ZM6,3H7V6H6ZM20,21H3V9H20ZM20,8H3V5H5V6A1,1,0,0,0,6,7H7A1,1,0,0,0,8,6V5h7V6a1,1,0,0,0,1,1h1a1,1,0,0,0,1-1V5h2Z" fill="#2e4258"/>
      </g>
    </g>
  </g>
</svg>
